static/fa/svgs/solid/scale-balanced.svg

<svg xmlns="http://www.w3.org/2000/svg" viewBox="0 0 640 512"><!--! Font Awesome Free 6.1.1 by @fontawesome - https://fontawesome.com License - https://fontawesome.com/license/free (Icons: CC BY 4.0, Fonts: SIL OFL 1.1, Code: MIT License) Copyright 2022 Fonticons, Inc.--><path d="M554.9 154.5c-17.62-35.25-68.12-35.38-85.87 0-87 174.3-84.1 165.9-84.1 181.5 0 44.13 57.25 80 128 80s127.1-35.88 127.1-80c-.93-16.1 1.37-8.7-85.13-181.5zM439.1 320l71.96-144 72.17 144H439.1zM256 336c0-16.12 1.375-8.75-85.12-181.5-17.62-35.25-68.12-35.38-85.87 0C-1.99 328.8.91 320.4.91 336c0 44.13 57.25 80 127.1 80S256 380.1 256 336zM127.9 176l72.2 144H55.96l71.94-144zm367.2 272H352V153.3c23.5-10.3 41.1-31.5 46.4-57.3H512c17.67 0 31.1-14.33 31.1-32S528.77 32 512 32H383.6c-14.62-19.38-37.5-32-63.62-32S270.1 12.62 256.4 32H128c-17.7 0-32 14.33-32 32s14.3 32 31.1 32h113.6c5.25 25.75 22.87 47 46.37 57.25V448H144c-26.51 0-48.01 21.49-48.01 48 0 8.836 7.165 16 16 16h416c8.836 0 16-7.164 16-16 .01-26.5-21.49-48-48.89-48z"/></svg>

<svg xmlns="http://www.w3.org/2000/svg" viewBox="0 0 640 512"><!--! Font Awesome Free 6.1.1 by @fontawesome - https://fontawesome.com License - https://fontawesome.com/license/free (Icons: CC BY 4.0, Fonts: SIL OFL 1.1, Code: MIT License) Copyright 2022 Fonticons, Inc. --><path d="M554.9 154.5c-17.62-35.25-68.12-35.38-85.87 0c-87 174.3-84.1 165.9-84.1 181.5c0 44.13 57.25 80 128 80s127.1-35.88 127.1-80C639.1 319.9 641.4 327.3 554.9 154.5zM439.1 320l71.96-144l72.17 144H439.1zM256 336c0-16.12 1.375-8.75-85.12-181.5c-17.62-35.25-68.12-35.38-85.87 0c-87 174.3-84.1 165.9-84.1 181.5c0 44.13 57.25 80 127.1 80S256 380.1 256 336zM127.9 176L200.1 320H55.96L127.9 176zM495.1 448h-143.1V153.3C375.5 143 393.1 121.8 398.4 96h113.6c17.67 0 31.1-14.33 31.1-32s-14.33-32-31.1-32h-128.4c-14.62-19.38-37.5-32-63.62-32S270.1 12.62 256.4 32H128C110.3 32 96 46.33 96 64S110.3 96 127.1 96h113.6c5.25 25.75 22.87 47 46.37 57.25V448H144c-26.51 0-48.01 21.49-48.01 48c0 8.836 7.165 16 16 16h416c8.836 0 16-7.164 16-16C544 469.5 522.5 448 495.1 448z"/></svg>
